!!!OTL: Vater Noah (2-18), S. 43
!!!id: K1110
**kern
*clefG2
*k[b-]
*d:
{8a
=1
8.d
16e
8f
8g
8a
8dd
=2
2a}
8r
=3
{8a
=4
8.a
16b-
8a
8g
8f
8e
=5
2d}
8r
=6
{8dd
=7
8.cc
16dd
8cc
8b-
8a
8g
=8
2f}
8r
=9
{8dd
=10
8.cc
16dd
8cc
8b-
8a
8g
=11
2f}
8r
=12
{8ff
=13
8.ee
16ff
8ee
8dd
8cc
8b
=14
4a}
8r
=15
{8dd
8dd
8dd
=16
8cc
8g
4.a
8a
=17
2d}
8r
=18
{8ff
=19
4ee
16ff
16ee
8dd
8cc
8b
=20
4a}
8r
=21
{8dd
8dd
8dd
=22
8cc
8g
4.a
8a
=23
2d}
8r
==
*-
!!!minrhy: 16
!!!meters: 3/4 ]  ZZ[8
!!!cut: Vater Noah (2-18), S. 43
!!!reg: Luxemburg
!!!trd: KINTZELE, Guillaume: An der Ucht, Bd. 2, Luxemburg 1927
!!!rhy1: X_  X_.XX_X_X_X_  X___0_
!!!rhy2: X_  X_.XX_X_X_X_  X___0_
!!!key: K1110  16  D 3/4 ]  ZZ[8
!!!mod: ACHTTONSKALA MELODISCH MOLL OHNE 7]  AMBITUS[10b
!!!kad: 513b3b5151
!!!akz: 15_51_7b3b_7b3b_+25_7b1_+25_7b1_
!!!fot: 'a__b__bs'bs'bs'c__bs'c__
!!!for: 'a__a__a__a__av_b__c__b__
!!!fok: 'S__\__\__\__\__\__\__\__
!! PHRAS[AUFTAKTIG]
!!!fkt: Trinklied
!! KINTZELE
!! PR[22] 2K[7] 2G[20] 3K[4] 3G[2] 4A[2] 4Ü[0] 5A[2] 6K[0] 6G[2]
!! 7K[0] 7G[0] 8A[0] MEHR[0] SI[39] ABS[54] SR[28] SP[11]
!! ST[12] 2k[6] 2g[20] 3k[6] 3g[2] 4d[2] 4ü[0] 5d[4] 6k[0] 6g[0]
!! 7k[0] 7g[0] 8d[0] mehr[0] si[39] dm[0] sr[26] sp[13]
!! 1F[7] 2F[51] 3F[20] 4F[5] LF[0] 2P[7] 3P[11] 4P[0] TRI[0] DF[6] AB[61]
!! TF[0] U3K[0] U3[0] U4[0] U4Ü[0] U5[2] U6K[0] U6[0] U7K[0] U7[0]
!! N1[16] N2K[0] N2[13] N3K[0] N3[31] N4[15] N4Ü[0] N5[20] N6K[0] N6[4]
!!!n7k: 0] N7[0] O1[0] O2K[0] O2[0] O3K[0] O3[0] HÖ[0
